app/assets/fonts/dsw.svg

<?xml version="1.0" standalone="no"?>
<!DOCTYPE svg PUBLIC "-//W3C//DTD SVG 1.1//EN" "http://www.w3.org/Graphics/SVG/1.1/DTD/svg11.dtd" >
<svg xmlns="http://www.w3.org/2000/svg">
<metadata>Generated by IcoMoon</metadata>
<defs>
<font id="dsw" horiz-adv-x="512">
<font-face units-per-em="512" ascent="480" descent="-32" />
<missing-glyph horiz-adv-x="512" />
<glyph unicode="&#x20;" d="" horiz-adv-x="256" />
<glyph unicode="&#xe000;" d="M452.011 447.834h-391.855c-15.389 0-27.99-12.601-27.99-27.99v-391.855c0-15.389 12.601-27.989 27.99-27.989h391.855c15.388 0 27.989 12.601 27.989 27.989v391.855c0 15.389-12.601 27.99-27.989 27.99zM340.052 307.886h-27.989c-23.779 0-27.989 0-27.989-55.979h55.979v-55.98h-55.979v-111.958h-55.98v111.958h-55.979v55.98h55.979c0 42.859 0 111.958 83.969 111.958h27.989v-55.979z" />
<glyph unicode="&#xe001;" d="M352 224l111-128h49l-160 192-32-32-96 96-224-256h50.016l173.984 192 96-96zM208.97 96h15.062v72h31.968v-24h32v-8h16v-24h16v-16h112l-80 96-32-32-96 96-144-160h48v32h16v14.816h24v-46.816h3.108v71.413c0 0-0.902 22.948 23.521 22.948v-8.607c0 0 8.172-1.637 12.18-7.373 1.299-1.866 2.161-4.158 2.161-6.968v-71.413z" />
<glyph unicode="&#xe002;" d="M352 224l111-128h49l-160 192-32-32-96 96-224-256h50.016l173.984 192 96-96zM432 96l-80 96-32-32-96 96-144-160z" />
<glyph unicode="&#xe003;" d="M0 224c0-141.385 114.615-256 256-256s256 114.615 256 256c0 141.385-114.615 256-256 256s-256-114.615-256-256z" />
<glyph unicode="&#xe004;" d="M451.541 447.917h-55.916l-27.959-223.708-110.832 95.891v-95.891l-112.834 95.891v-95.891l-111.833 95.891v-319.6h447.333v223.709l-27.959 223.708zM160 64.391h-63.917v31.963h63.917v-31.963zM160 127.318h-63.917v32.964h63.917v-32.964zM255.834 64.391h-63.917v31.963h63.917v-31.963zM255.834 127.318h-63.917v32.964h63.917v-32.964zM352.666 64.391h-63.916v31.963h63.916v-31.963zM352.666 127.318h-63.916v32.964h63.916v-32.964z" />
<glyph unicode="&#xe005;" d="M256 480c-141.385 0-256-114.615-256-256s114.615-256 256-256 256 114.615 256 256-114.615 256-256 256zM256 0c-123.712 0-224 100.288-224 224s100.288 224 224 224 224-100.288 224-224-100.288-224-224-224z" />
<glyph unicode="&#xe006;" d="M480 288h-160v160h-128v-160h-160v-128h160v-160h128v160h160z" />
<glyph unicode="&#xe007;" d="M32 288h448v-128h-448z" />
<glyph unicode="&#xe008;" d="M32.868 182.867c2.151 20.888 21.181 36.13 42.485 34.018l57.723-5.785 0.211 1.663-45.782 4.572c-18.625 1.869-31.991 20.333-29.806 41.256 2.17 20.923 19.013 36.373 37.671 34.502l153.186-15.346 21.747-0.312c0 0-31.464 13.995-7.286 125.745 24.108 111.715 87.827 69.766 87.827 69.766s0.847-95.434 4.269-108.979c3.457-13.545 78.198-156.367 78.198-156.367 0-7.552 46.312-15.103 46.275-22.725-0.546-65.678 0-121.864 0-189.899-49.662 12.748-76.222-25.529-182.319-25.529-34.655 0-77.986 5.543-114.458 11.466l-95.516 9.562c-16.56 1.662-28.219 19.951-26.066 40.876 1.675 16.142 11.216 28.925 23.104 33.219l-12.028 1.212c-18.906 1.906-32.521 20.371-30.352 41.292 1.887 17.944 14.884 31.107 30.439 33.533l-4.885 0.485c-21.305 2.148-36.806 20.852-34.637 41.775z" />
<glyph unicode="&#xe009;" d="M479.383 266.796c-2.151-20.888-21.181-36.13-42.485-34.018l-57.723 5.785-0.211-1.663 45.782-4.572c18.625-1.869 31.991-20.333 29.806-41.256-2.17-20.924-19.013-36.373-37.671-34.503l-153.186 15.346-21.747 0.312c0 0 31.465-13.995 7.286-125.745-24.108-111.715-87.827-69.766-87.827-69.766s-0.847 95.434-4.269 108.979c-3.456 13.545-78.198 156.368-78.198 156.368 0 7.552-46.312 15.103-46.275 22.725 0.546 65.678 0 121.864 0 189.899 49.662-12.748 76.222 25.529 182.319 25.529 34.655 0 77.986-5.543 114.458-11.466l95.516-9.562c16.56-1.662 28.219-19.951 26.066-40.876-1.676-16.142-11.216-28.925-23.104-33.219l12.028-1.212c18.905-1.906 32.521-20.371 30.352-41.292-1.888-17.944-14.885-31.107-30.439-33.533l4.885-0.485c21.304-2.148 36.806-20.852 34.637-41.775z" />
<glyph unicode="&#xe00a;" d="M475.985 59.73l-104.382 104.37c18.394 28.685 29.199 62.72 29.199 99.327 0 101.849-82.555 184.401-184.401 184.401s-184.401-82.552-184.401-184.401c0-101.848 82.554-184.401 184.401-184.401 36.608 0 70.629 10.804 99.312 29.197l104.368-104.368c5.121-5.145 13.507-5.145 18.627 0l37.276 37.252c5.12 5.119 5.12 13.505 0.001 18.623zM216.401 131.712c-72.622 0-131.715 59.092-131.715 131.715s59.093 131.715 131.715 131.715 131.715-59.091 131.715-131.715c0-72.623-59.093-131.715-131.715-131.715z" />
<glyph unicode="&#xe00b;" d="M255.775 415.638l55.76-159.83h167.793l-143.763-97.991 59.866-157.268-138.656 94.845-142.037-94.845 47.302 157.268-130.162 97.991h167.793z" />
<glyph unicode="&#xe00c;" d="M59.054 112.182h84.162v-112.161h-84.162zM171.269 159.29h84.162v-159.27h-84.162zM283.484 208.397h84.161v-208.377h-84.161zM395.7 255.505h84.161v-255.484h-84.161zM417.945 347.583h-83.010l-111.037-83.762-54.546 25.273-137.352-112.27v-36.534l141.187 115.518 53.668-24.835 117.395 88.556h85.312l50.299 48.301v39.67z" />
<glyph unicode="&#xe00d;" d="M32 0.001h108.484l31.478 31.991h-139.962zM199.954 0.001h83.087l24.317 48.154-82.309 28.103zM336.415 448.876l-136.461-279.922 20.516-61.561 119.869-40.936 55.56 18.519 83.979 311.387-143.463 52.513zM288.305 147.96l-60.358 20.994 122.464 245.806 48.113-17.495-110.219-249.305z" />
<glyph unicode="&#xe00e;" d="M0 171.904l160.672-103.312v74.576l-95.664 59.072 95.664 59.072v75.088l-160.672-103.84v-60.656zM194.656 32h55.296l81.023 384h-55.663l-80.656-384zM351.344 336.4v-75.088l95.632-59.072-95.632-59.057v-74.575l160.656 103.296v60.656l-160.656 103.84z" />
<glyph unicode="&#xe00f;" d="M452 448h-392c-15.477 0-28-12.523-28-28v-392c0-15.477 12.523-28 28-28h392c15.477 0 28 12.523 28 28v392c0 15.477-12.523 28-28 28zM172 112h-56v196h56v-196zM144 336c-15.477 0-28 12.537-28 28s12.523 28 28 28 28-12.537 28-28-12.523-28-28-28zM396 112h-56v84c0 26.305-7 56-35 56-31.5 0-49-28-49-56v-84h-55.562c0 0 1.312 196 0.438 196h55.124v-42c8.531 18.785 26.25 36.75 51.898 40.25 54.36 7.41 88.102-21.328 88.102-81.512v-112.738z" />
<glyph unicode="&#xe010;" d="M452 448h-392c-15.395 0-28-12.605-28-28v-392c0-15.395 12.605-28 28-28h392c15.395 0 28 12.605 28 28v392c0 15.395-12.605 28-28 28zM367.809 280.219c0.109-2.406 0.219-4.867 0.219-7.328 0-74.73-56.834-160.891-160.863-160.891-31.924 0-61.551 9.406-86.57 25.402 4.416-0.52 9.119-0.793 13.686-0.793 26.496 0 51.256 9.078 70.615 24.227-24.746 0.438-44.844 16.789-52.035 39.266 3.459-0.656 8.559-1.039 12.209-1.039 5.154 0 13.275 0.711 18.033 1.996-25.869 5.222-39.103 28.054-39.103 55.425v0.766c0-4.266 10.076-6.809 19.346-7.109-15.176 10.172-31.418 27.453-31.418 47.086 0 10.336 2.789 20.070 7.656 28.41 27.891-34.207 69.562-56.738 116.553-59.090-0.971 4.156-1.463 8.477-1.463 12.906 0 31.213 25.307 56.547 56.533 56.547 16.27 0 30.953-6.863 41.289-17.869 12.852 2.529 24.965 7.232 35.902 13.727-4.238-13.221-13.207-24.295-24.855-31.295 11.43 1.395 22.312 4.43 32.457 8.928-7.574-11.335-17.117-21.288-28.191-29.272z" />
<glyph unicode="&#xe011;" d="M416 288c0 88.366-71.635 160-160 160s-160-71.634-160-160c0-52.345 25.139-98.816 64-128.007v-31.993h192v31.993c38.861 29.191 64 75.662 64 128.007zM160 96h192v-32h-192zM192 32h128v-32h-128z" />
<glyph unicode="&#xe012;" d="M200.161 180.496c-2.097 0-4.21-0.078-6.307-0.184-17.965-1.264-34.431-7.562-46.466-17.729-11.807-10.062-17.877-22.694-17.035-35.598 1.807-26.808 32.623-42.554 70.001-39.983 36.843 2.482 61.361 22.308 59.581 49.133-1.685 25.3-25.15 44.361-59.774 44.361zM235.442 326.597c-9.737 32.093-25.492 41.589-49.983 41.589-2.631 0-5.281-0.359-7.825-1.013-10.605-2.785-19.035-11.105-23.676-23.408-4.79-12.47-5.149-25.448-0.991-40.326 7.439-26.474 27.571-45.668 47.826-45.668 2.649 0 5.281 0.351 7.825 1.018 22.14 5.841 36.009 37.509 26.824 67.808zM451.999 448h-391.999c-15.474 0-28-12.522-28-27.997v-392.011c0-15.474 12.526-27.992 28-27.992h391.999c15.483 0 28.001 12.518 28.001 27.992v392.011c0 15.475-12.518 27.997-28.001 27.997zM249.548 68.273c-24.316-11.070-50.51-12.28-60.65-12.28h-5.194c-15.772 0-94.501 2.57-94.501 69.721 0 65.967 85.721 70.283 112.002 70.283h0.658c-15.158 28.001-12.009 38.948-12.009 38.948-1.342-0.087-3.281 0.676-5.685 0.676-9.903 0-28.957 1.474-45.36 11.395-20.071 12.097-30.246 32.685-30.246 61.204 0 80.502 93.896 83.783 94.826 83.783h108.608v-1.913c0-9.847-26.246-11.707-39.098-13.351-4.324-0.544-20.509-1.443-22.965-2.623 23.738-11.838 27.562-30.514 27.562-58.348 0-31.611-13.246-48.375-27.29-60.138-8.667-7.272-15.536-13.009-15.536-20.632 0-7.491 9.413-15.264 20.264-24.176 17.825-14.632 42.211-34.668 42.211-68.354 0.001-34.904-16.008-59.843-47.597-74.195zM424.008 223.998h-56.001v-56.002h-28.010v56.002h-55.992v28h55.992v56.002h28.010v-56.002h56.001v-28z" />
<glyph unicode="&#xe600;" d="M509.5 365.2l-75.3 75.3c-3.3 3.3-8.7 3.3-12.1 0l-263-263-69.3 69.3c-3.3 3.3-8.7 3.3-12.1 0l-75.2-75.3c-3.3-3.3-3.3-8.7 0-12.1l150.6-150.6c1.7-1.7 3.9-2.5 6-2.5 2.2 0 4.4 0.8 6 2.5l344.3 344.3c1.6 1.6 2.5 3.8 2.5 6 0.1 2.3-0.8 4.5-2.4 6.1z" />
<glyph unicode="&#xe601;" d="M488.74 480h-488.74v-22.595l223.709-223.709v-201.114c0 0-31.958-31.958-95.875-31.958s-63.917-31.958-63.917-31.958h383.501c0 0 0 31.958-63.917 31.958s-95.875 31.958-95.875 31.958v201.115l223.709 223.709v22.594h-22.595zM255.668 256.291l-31.958 31.958h63.917l-31.959-31.958zM392.865 384.125h-274.395l-63.917 63.917h402.228l-63.916-63.917z" />
</font></defs></svg>

<?xml version="1.0" standalone="no"?>
<!DOCTYPE svg PUBLIC "-//W3C//DTD SVG 1.1//EN" "http://www.w3.org/Graphics/SVG/1.1/DTD/svg11.dtd" >
<svg xmlns="http://www.w3.org/2000/svg">
<metadata>
This is a custom SVG font generated by IcoMoon.
<iconset grid="16"></iconset>
</metadata>
<defs>
<font id="dsw" horiz-adv-x="512" >
<font-face units-per-em="512" ascent="480" descent="-32" />
<missing-glyph horiz-adv-x="512" />
<glyph class="hidden" unicode="&#xf000;" d="M0,480L 512 -32L0 -32 z" horiz-adv-x="0" />
<glyph unicode="&#xe001;" d="M 352,224L 463,96L 512,96L 352,288L 320,256L 224,352L0,96L 50.016,96L 224,288L 320,192 		zM 208.97,96l 15.062,0 l0,72 L 256,168 l0-24 l 32,0 l0-8 l 16,0 l0-24 l 16,0 l0-16 l 112,0 l-80,96l-32-32l-96,96L 80,96l 48,0 l0,32 l 16,0 l0,14.816 l 24,0 L 168,96 l 3.108,0 l0,71.413 
			c0,0-0.902,22.948, 23.521,22.948l0-8.607 c0,0, 8.172-1.637, 12.18-7.373c 1.299-1.866, 2.161-4.158, 2.161-6.968L 208.97,96 z"  />
<glyph unicode="&#xe002;" d="M 352,224L 463,96L 512,96L 352,288L 320,256L 224,352L0,96L 50.016,96L 224,288L 320,192 		zM 432,96L 352,192L 320,160L 224,256L 80,96 		z"  />
<glyph unicode="&#xe003;" d="M0,224A256,256 1260 1 1 512,224A256,256 1260 1 1 0,224z"  />
<glyph unicode="&#xe005;" d="M 256,480C 114.615,480,0,365.385,0,224s 114.615-256, 256-256s 256,114.615, 256,256S 397.385,480, 256,480z M 256,0
		C 132.288,0, 32,100.288, 32,224S 132.288,448, 256,448s 224-100.288, 224-224S 379.712,0, 256,0z"  />
<glyph unicode="&#xe006;" d="M 480,288L 320,288L 320,448L 192,448L 192,288L 32,288L 32,160L 192,160L 192,0L 320,0L 320,160L 480,160 	z"  />
<glyph unicode="&#xe007;" d="M 32,288L 480,288L 480,160L 32,160z"  />
<glyph unicode="&#xe008;" d="M 32.868,182.867c 2.151,20.888, 21.181,36.13, 42.485,34.018l 57.723-5.785l 0.211,1.663l-45.782,4.572
		c-18.625,1.869-31.991,20.333-29.806,41.256c 2.17,20.923, 19.013,36.373, 37.671,34.502l 153.186-15.346l 21.747-0.312
		c0,0-31.464,13.995-7.286,125.745c 24.108,111.715, 87.827,69.766, 87.827,69.766s 0.847-95.434, 4.269-108.979
		c 3.457-13.545, 78.198-156.367, 78.198-156.367c0-7.552, 46.312-15.103, 46.275-22.725c-0.546-65.678,0-121.864,0-189.899
		c-49.662,12.748-76.222-25.529-182.319-25.529c-34.655,0-77.986,5.543-114.458,11.466l-95.516,9.562
		c-16.56,1.662-28.219,19.951-26.066,40.876c 1.675,16.142, 11.216,28.925, 23.104,33.219l-12.028,1.212
		c-18.906,1.906-32.521,20.371-30.352,41.292c 1.887,17.944, 14.884,31.107, 30.439,33.533l-4.885,0.485
		C 46.2,143.24, 30.699,161.944, 32.868,182.867z"  />
<glyph unicode="&#xe009;" d="M 479.383,266.796c-2.151-20.888-21.181-36.13-42.485-34.018l-57.723,5.785l-0.211-1.663l 45.782-4.572
		c 18.625-1.869, 31.991-20.333, 29.806-41.256c-2.17-20.924-19.013-36.373-37.671-34.503l-153.186,15.346l-21.747,0.312
		c0,0, 31.465-13.995, 7.286-125.745c-24.108-111.715-87.827-69.766-87.827-69.766s-0.847,95.434-4.269,108.979
		C 153.682,99.24, 78.94,242.063, 78.94,242.063c0,7.552-46.312,15.103-46.275,22.725c 0.546,65.678,0,121.864,0,189.899
		C 82.327,441.939, 108.887,480.216, 214.984,480.216c 34.655,0, 77.986-5.543, 114.458-11.466l 95.516-9.562
		c 16.56-1.662, 28.219-19.951, 26.066-40.876c-1.676-16.142-11.216-28.925-23.104-33.219l 12.028-1.212
		c 18.905-1.906, 32.521-20.371, 30.352-41.292c-1.888-17.944-14.885-31.107-30.439-33.533l 4.885-0.485
		C 466.050,306.423, 481.552,287.719, 479.383,266.796z"  />
<glyph unicode="&#xe00a;" d="M 475.985,59.73l-104.382,104.37c 18.394,28.685, 29.199,62.72, 29.199,99.327c0,101.849-82.555,184.401-184.401,184.401
		C 114.554,447.828, 32,365.276, 32,263.427c0-101.848, 82.554-184.401, 184.401-184.401c 36.608,0, 70.629,10.804, 99.312,29.197
		l 104.368-104.368c 5.121-5.145, 13.507-5.145, 18.627,0l 37.276,37.252C 481.104,46.226, 481.104,54.612, 475.985,59.73z
		 M 216.401,131.712c-72.622,0-131.715,59.092-131.715,131.715c0,72.624, 59.093,131.715, 131.715,131.715
		s 131.715-59.091, 131.715-131.715C 348.116,190.804, 289.023,131.712, 216.401,131.712z"  />
<glyph unicode="&#xe00b;" d="M 255.775,415.638L 311.535,255.808L 479.328,255.808L 335.565,157.817L 395.431,0.549L 256.775,95.394L 114.738,0.549L 162.040,157.817L 31.878,255.808L 199.671,255.808 	z"  />
<glyph unicode="&#xe011;" d="M 416,288c0,88.366-71.635,160-160,160c-88.366,0-160-71.634-160-160c0-52.345, 25.139-98.816, 64-128.007L 160,128 l 192,0 l0,31.993 
		C 390.861,189.184, 416,235.655, 416,288zM 160,96L 352,96L 352,64L 160,64zM 192,32L 320,32L 320,0L 192,0z"  />
<glyph unicode="&#xe004;" d="M 451.541,447.917l-55.916,0 l-27.959-223.708L 256.834,320.1l0-95.891 L 144,320.1l0-95.891 L 32.167,320.1l0-319.6 L 479.5,0.5 L 479.5,224.209 
		L 451.541,447.917z M 160,64.391L 96.083,64.391 l0,31.963 L 160,96.354 L 160,64.391 z M 160,127.318L 96.083,127.318 l0,32.964 L 160,160.282 L 160,127.318 z M 255.834,64.391l-63.917,0 
		l0,31.963 l 63.917,0 L 255.834,64.391 z M 255.834,127.318l-63.917,0 l0,32.964 l 63.917,0 L 255.834,127.318 z M 352.666,64.391L 288.75,64.391 l0,31.963 l 63.916,0 L 352.666,64.391 z
		 M 352.666,127.318L 288.75,127.318 l0,32.964 l 63.916,0 L 352.666,127.318 z"  />
<glyph unicode="&#xe00c;" d="M 59.054,112.182L 143.216,112.182L 143.216,0.021L 59.054,0.021zM 171.269,159.29L 255.431,159.29L 255.431,0.020L 171.269,0.020zM 283.484,208.397L 367.645,208.397L 367.645,0.020L 283.484,0.020zM 395.7,255.505L 479.861,255.505L 479.861,0.021L 395.7,0.021zM 417.945,347.583L 334.935,347.583L 223.898,263.821L 169.352,289.094L 32,176.824L 32,140.29L 173.187,255.808L 226.855,230.973L 344.25,319.529L 429.562,319.529L 479.861,367.83L 479.861,407.5 		z"  />
<glyph unicode="&#xe00d;" d="M 32,0.001L 140.484,0.001L 171.962,31.992L 32,31.992 		zM 199.954,0.001L 283.041,0.001L 307.358,48.155L 225.049,76.258 		zM 336.415,448.876L 199.954,168.954l 20.516-61.561l 119.869-40.936l 55.56,18.519l 83.979,311.387L 336.415,448.876z
			 M 288.305,147.96l-60.358,20.994L 350.411,414.76l 48.113-17.495L 288.305,147.96z"  />
<glyph unicode="&#xe00e;" d="M0,171.904l 160.672-103.312l0,74.576 L 65.008,202.24l 95.664,59.072L 160.672,336.4 L0,232.56L0,171.904 z M 194.656,32l 55.296,0 l 81.023,384
		l-55.663,0 L 194.656,32z M 351.344,336.4l0-75.088 l 95.632-59.072l-95.632-59.057l0-74.575 L 512,171.904L 512,232.56 L 351.344,336.4z"  />
<glyph unicode="&#xe00f;" d="M 452,448L 60,448 c-15.477,0-28-12.523-28-28l0-392 c0-15.477, 12.523-28, 28-28l 392,0 c 15.477,0, 28,12.523, 28,28L 480,420 
				C 480,435.477, 467.477,448, 452,448z M 172,112l-56,0 L 116,308 l 56,0 L 172,112 z M 144,336c-15.477,0-28,12.537-28,28s 12.523,28, 28,28s 28-12.537, 28-28
				S 159.477,336, 144,336z M 396,112l-56,0 l0,84 c0,26.305-7,56-35,56c-31.5,0-49-28-49-56l0-84 l-55.562,0 c0,0, 1.312,196, 0.438,196L 256,308 l0-42 
				c 8.531,18.785, 26.25,36.75, 51.898,40.25C 362.258,313.66, 396,284.922, 396,224.738L 396,112 z"  />
<glyph unicode="&#xe010;" d="M 452,448L 60,448 c-15.395,0-28-12.605-28-28l0-392 c0-15.395, 12.605-28, 28-28l 392,0 c 15.395,0, 28,12.605, 28,28L 480,420 
				C 480,435.395, 467.395,448, 452,448z M 367.809,280.219c 0.109-2.406, 0.219-4.867, 0.219-7.328c0-74.73-56.834-160.891-160.863-160.891
				c-31.924,0-61.551,9.406-86.57,25.402c 4.416-0.52, 9.119-0.793, 13.686-0.793c 26.496,0, 51.256,9.078, 70.615,24.227
				c-24.746,0.438-44.844,16.789-52.035,39.266c 3.459-0.656, 8.559-1.039, 12.209-1.039c 5.154,0, 13.275,0.711, 18.033,1.996
				C 157.234,206.281, 144,229.113, 144,256.484l0,0.766 c0-4.266, 10.076-6.809, 19.346-7.109c-15.176,10.172-31.418,27.453-31.418,47.086
				c0,10.336, 2.789,20.070, 7.656,28.41c 27.891-34.207, 69.562-56.738, 116.553-59.090c-0.971,4.156-1.463,8.477-1.463,12.906
				c0,31.213, 25.307,56.547, 56.533,56.547c 16.27,0, 30.953-6.863, 41.289-17.869c 12.852,2.529, 24.965,7.232, 35.902,13.727
				c-4.238-13.221-13.207-24.295-24.855-31.295c 11.43,1.395, 22.312,4.43, 32.457,8.928
				C 388.426,298.156, 378.883,288.203, 367.809,280.219z"  />
<glyph unicode="&#xe000;" d="M 452.011,447.834L 60.156,447.834 c-15.389,0-27.99-12.601-27.99-27.99l0-391.855 c0-15.389, 12.601-27.989, 27.99-27.989l 391.855,0 
				C 467.399,0, 480,12.601, 480,27.989L 480,419.844 C 480,435.233, 467.399,447.834, 452.011,447.834z M 340.052,307.886l-27.989,0 
				c-23.779,0-27.989,0-27.989-55.979l 55.979,0 l0-55.98 l-55.979,0 l0-111.958 l-55.98,0 L 228.094,195.927 l-55.979,0 l0,55.98 l 55.979,0 
				c0,42.859,0,111.958, 83.969,111.958l 27.989,0 L 340.052,307.886 z"  />
<glyph unicode="&#xe012;" d="M 200.161,180.496c-2.097,0-4.21-0.078-6.307-0.184c-17.965-1.264-34.431-7.562-46.466-17.729
			c-11.807-10.062-17.877-22.694-17.035-35.598c 1.807-26.808, 32.623-42.554, 70.001-39.983c 36.843,2.482, 61.361,22.308, 59.581,49.133
			C 258.25,161.435, 234.785,180.496, 200.161,180.496M 235.442,326.597c-9.737,32.093-25.492,41.589-49.983,41.589c-2.631,0-5.281-0.359-7.825-1.013
			c-10.605-2.785-19.035-11.105-23.676-23.408c-4.79-12.47-5.149-25.448-0.991-40.326c 7.439-26.474, 27.571-45.668, 47.826-45.668
			c 2.649,0, 5.281,0.351, 7.825,1.018C 230.758,264.63, 244.627,296.298, 235.442,326.597M 451.999,448L 60,448 c-15.474,0-28-12.522-28-27.997l0-392.011 C 32,12.518, 44.526,0, 60,0l 391.999,0 
			C 467.482,0, 480,12.518, 480,27.992L 480,420.003 C 480,435.478, 467.482,448, 451.999,448 M 249.548,68.273
			c-24.316-11.070-50.51-12.28-60.65-12.28l-3.22,0 l-1.974,0 c-15.772,0-94.501,2.57-94.501,69.721c0,65.967, 85.721,70.283, 112.002,70.283
			l 0.658,0 c-15.158,28.001-12.009,38.948-12.009,38.948c-1.342-0.087-3.281,0.676-5.685,0.676c-9.903,0-28.957,1.474-45.36,11.395
			c-20.071,12.097-30.246,32.685-30.246,61.204c0,80.502, 93.896,83.783, 94.826,83.783l 108.608,0 l0-1.913 
			c0-9.847-26.246-11.707-39.098-13.351c-4.324-0.544-20.509-1.443-22.965-2.623c 23.738-11.838, 27.562-30.514, 27.562-58.348
			c0-31.611-13.246-48.375-27.29-60.138c-8.667-7.272-15.536-13.009-15.536-20.632c0-7.491, 9.413-15.264, 20.264-24.176
			c 17.825-14.632, 42.211-34.668, 42.211-68.354C 297.146,107.564, 281.137,82.625, 249.548,68.273 M 424.008,223.998l-56.001,0 l0-56.002 
			l-28.010,0 l0,56.002 l-55.992,0 l0,28 l 55.992,0 L 339.997,308 l 28.010,0 l0-56.002 l 56.001,0 L 424.008,223.998 z"  />
<glyph unicode="&#x20;" horiz-adv-x="256" />
</font></defs></svg>
